X: 380
T: Bir Hadise Var...
C: Servet Yesârî
O: Turkey
F: http://compmusic.upf.edu/node/140
N: hisarbuselik--sarki--kapali_curcuna--bir_hadise--servet_yesari
N: makam= hisarbuselik
N: form= sarki
N: usul= kapali_curcuna = 10/8
M: 10/8
L: 1/16
K: C _1/4B   
Q: 1/4=240
%%MIDI tuningsystem comma53
a6a4e4e6  | ^d2e2 f2e2 =d2c2 =B2A2 ^G2B2  | \
w:  ARANAĞME  |   | 
A4 c2=B2 d2c2 e2d4f2  | 
w:   | 
e8-e2a8-a2  | d8-d2g8-g2  | c8-c2e8-e2  | \
w:   |   |   | 
d2e2 f2e2 d2c2 =B2A4^G2  | 
w:   | 
A4 e2^d2 e2c2 =B2A6  | a6a4e4e6  | ^d2e2 f2e2 =d2c2 =B2A2 ^G2B2  | 
w:   |  ARANAĞME  |   | 
A4 c2=B2 d2c2 e2d4f2  | e8-e2a8-a2  | \
w:   |   | 
d8-d2g8-g2  | c8-c2e8-e2  | d2e2 f2e2 d2c2 =B2A4^G2  | 
w:   |   |   | 
A4 e2^d2 e2c2 =B2A6  | d6e4f2 {g}e2d2 ^c2d2  | \
w:   |  Bir  *  ha  | 
e4 d2g2 {f}e2e4.e2 .c2.=B2  | 
w:  di *  se  *  *  var  SAZ  | 
A6=B4c2 B2A2 ^G2B2  | A16-A4  | A4 c2=B2 d2c2 e2d2 f2e2  | \
w:  cân  i le   |  câ  |  nân   | 
{e}a4 g2f2 e2e2 d2e2 d2c2  | 
w:   | 
.d6d2 e2e2 d2c2 =B2c2  | d4 f2e2 d2c2 =B2A6  | \
w:  *  a *  ra *  sın  |  da   SAZ  | 
d6e4f2 {g}e2d2 ^c2d2  | 
w:  Bir  *  ha  | 
e4 d2g2 {f}e2e4.e2 .c2.=B2  | A6=B4c2 B2A2 ^G2B2  | A16-A4  | \
w:  di *  se  *  *  var  SAZ  |  cân  i le   |  câ  | 
A4 c2=B2 d2c2 e2d2 f2e2  | 
w:  nân   | 
{e}a4 g2f2 e2e2 d2e2 d2c2  | .d6d2 e2e2 d2c2 =B2c2  | \
w:   |  *  a *  ra *  sın  | 
d4 f2e2 d2c2 d2e6  | 
w:  da   SAZ  | 
e2d2 d2e4e4a6  | a6a4a2 g2f2 e2d2  | \
w:  Kal *  *  *  dım   |  yi ne  bir   | 
d6e2 f2e2 d2c2 =B2d2  | 
w:  â teş_ *  i   | 
c16-c4  | e4 d2c4d4e6  | d4 c2=B4c4d6  | \
w:  hic  |  rân   |   | 
.c6c4c2 =B2A2 {B}A2^G2  | A4 f2e2 d2c2 d2e6  | 
w:  *  a ra *  sın  |  da   SAZ  | 
e2d2 d2e4e4a6  | a6a4a2 g2f2 e2d2  | \
w:  Kal *  *  *  dım   |  yi ne  bir   | 
d6e2 f2e2 d2c2 =B2d2  | 
w:  â teş_ *  i   | 
c16-c4  | e4 d2c4d4e6  | d4 c2=B4c4d6  | \
w:  hic  |  rân   |   | 
.c6c4c2 =B2A2 {B}A2^G2  | A4 c'2=b2 a2^g2 a2b6  | 
w:  *  a ra *  sın  |  da   SAZ  | 
a6=b4c'2 b2a2 ^g2a2  | =b4 a2^d'2 {c'}b2b8-b2  | \
w:  Bir  *  tîr_  |  i  *  ka *  *  za   | 
e6f4a2 ^g2f2 e2g2  | f6f4f4f6  | 
w:  var  yi ne   |  müj  | 
e2g2 ^3/4f2g4g2 =f2e4^d2  | e2g2 ^3/4f2a2 g2{a}g2 =f2e2 d2c2  | \
w:  gân   |   | 
.d6d2 e2e2 d2c2 =B2c2  | 
w:  *  a *  ra *  sın  | 
d4 f2e2 d2{e}c2 d2e6  | e2d2 d2e4e4a6  | \
w:  da   SAZ  |  Kal *  *  *  dım   | 
a6a4a2 g2f2 e2d2  | d6e2 f2e2 d2c2 =B2d2  | 
w:  yi ne  bir   |  â teş_ *  i   | 
c16-c4  | e4 d2c4d4e6  | d4 c2=B4c4d6  | \
w:  hic  |  rân   |   | 
.c6c4c2 =B2A2 {B}A2^G2  | A4 f2e2 d2c2 d2e6  | 
w:  *  a ra *  sın  |  da   SAZ  | 
e2d2 d2e4e4a6  | a6a4a2 g2f2 e2d2  | \
w:  Kal *  *  *  dım   |  yi ne  bir   | 
d6e2 f2e2 d2c2 =B2d2  | 
w:  â teş_ *  i   | 
c16-c4  | e4 d2c4d4e6  | d4 c2=B4c4d6  | \
w:  hic  |  rân   |   | 
.c6c4c2 =B2A2 {B}A2^G2  | A4 f2e2 d2c2 =B2A6  | 
w:  *  a ra *  sın  |  da   SAZ KARAR  | 
|


